www/assets/icons/precision_manufacturing.svg

<svg width="24" height="24" viewBox="0 0 24 24" xmlns="http://www.w3.org/2000/svg" fill='currentColor'><path d="M19.9288 8.45763L16.3288 10.1376L13.9988 7.94763V6.54763L16.3288 4.35763L19.9288 6.03763C20.3088 6.21763 20.7488 6.04763 20.9288 5.67763C21.1088 5.29763 20.9388 4.85763 20.5688 4.67763L16.6488 2.84763C16.2688 2.66763 15.8188 2.74763 15.5188 3.04763L13.7788 4.64763C13.5988 4.40763 13.3188 4.24763 12.9988 4.24763C12.4488 4.24763 11.9988 4.69763 11.9988 5.24763V6.24763H8.81879C8.33879 4.89763 6.97879 3.97763 5.39879 4.31763C4.23879 4.56763 3.24879 5.56763 3.03879 6.74763C2.81879 8.06763 3.49879 9.21763 4.51879 9.82763L7.07879 18.2476H3.99879V21.2476H16.9988V18.2476H13.3788L8.40879 9.01763C8.57879 8.77763 8.71879 8.52763 8.81879 8.24763H11.9988V9.24763C11.9988 9.79763 12.4488 10.2476 12.9988 10.2476C13.3188 10.2476 13.5988 10.0876 13.7788 9.84763L15.5188 11.4476C15.8188 11.7476 16.2688 11.8276 16.6488 11.6476L20.5688 9.81763C20.9488 9.63763 21.1088 9.19763 20.9288 8.81763C20.7488 8.44763 20.3088 8.27763 19.9288 8.45763ZM5.99879 8.24763C5.44879 8.24763 4.99879 7.79763 4.99879 7.24763C4.99879 6.69763 5.44879 6.24763 5.99879 6.24763C6.54879 6.24763 6.99879 6.69763 6.99879 7.24763C6.99879 7.79763 6.54879 8.24763 5.99879 8.24763Z"/></svg>

<svg xmlns="http://www.w3.org/2000/svg" width="24" height="24" viewBox="0 0 24 24" fill='currentColor'><path d="m19.929 8.458-3.6 1.68-2.33-2.19v-1.4l2.33-2.19 3.6 1.68c.38.18.82.01 1-.36.18-.38.01-.82-.36-1l-3.92-1.83a.99.99 0 0 0-1.13.2l-1.74 1.6a.98.98 0 0 0-.78-.4c-.55 0-1 .45-1 1v1h-3.18c-.48-1.35-1.84-2.27-3.42-1.93-1.16.25-2.15 1.25-2.36 2.43-.22 1.32.46 2.47 1.48 3.08l2.56 8.42h-3.08v3h13v-3h-3.62l-4.97-9.23c.17-.24.31-.49.41-.77h3.18v1c0 .55.45 1 1 1 .32 0 .6-.16.78-.4l1.74 1.6c.3.3.75.38 1.13.2l3.92-1.83c.38-.18.54-.62.36-1a.753.753 0 0 0-1-.36m-13.93-.21c-.55 0-1-.45-1-1s.45-1 1-1 1 .45 1 1-.45 1-1 1"/></svg>
